build/img/cloud-logo-wrong-3.svg

<svg width="116" height="80" viewBox="0 0 116 80" fill="none" xmlns="http://www.w3.org/2000/svg">
<g clip-path="url(#clip0)">
<path d="M96.0601 31.1835C95.6599 31.1835 95.2528 31.1835 94.8491 31.2201C93.9942 21.3191 85.3981 13.5872 75.2008 13.5872C72.4913 13.5907 69.811 14.1364 67.3239 15.1908C65.5121 10.7051 62.3662 6.85765 58.2953 4.14852C54.2244 1.4394 49.4167 -0.00608118 44.4971 -4.21897e-05C30.9719 -4.21897e-05 19.9673 10.746 19.9673 23.954C19.9673 24.32 19.9673 24.6926 19.9978 25.0686C14.4696 25.8199 9.40336 28.5022 5.7297 32.6227C2.05605 36.7433 0.0216394 42.0254 0.000142672 47.4989C-0.016116 52.0213 1.35758 56.4436 3.94206 60.189C6.52655 63.9343 10.2019 66.829 14.4887 68.4954C16.7819 69.4136 20.8527 69.9359 21.1987 69.1607C21.3378 68.8513 20.9917 68.5286 20.0826 68.1194C17.7193 67.0724 15.4498 65.8327 13.298 64.4132C8.96941 61.4189 6.68638 58.3348 5.53639 56.2821C4.11183 53.5661 3.37638 50.5532 3.39245 47.4989C3.40682 42.5752 5.33067 37.8412 8.77361 34.2576C12.2165 30.674 16.9207 28.5092 21.9314 28.2026C22.1613 28.1883 22.3857 28.1282 22.5911 28.0261C22.7966 27.924 22.9786 27.7819 23.1262 27.6085C23.2738 27.4351 23.3838 27.234 23.4496 27.0176C23.5154 26.8011 23.5356 26.5738 23.5088 26.3495C23.4124 25.5544 23.3626 24.7547 23.3596 23.954C23.3596 12.5825 32.858 3.32691 44.4971 3.32691C49.0233 3.34096 53.4267 4.77161 57.0663 7.41055C60.7059 10.0495 63.3915 13.7589 64.7322 17.9988C64.8061 18.2371 64.9336 18.456 65.1053 18.6395C65.277 18.823 65.4885 18.9663 65.7242 19.0589C65.96 19.1515 66.2139 19.191 66.4673 19.1745C66.7206 19.158 66.967 19.086 67.1882 18.9636C69.6677 17.5992 72.4672 16.8929 75.3102 16.9144C78.1532 16.9359 80.9412 17.6845 83.3989 19.0862C85.8566 20.4879 87.8989 22.4943 89.324 24.907C90.749 27.3198 91.5076 30.0554 91.5246 32.8437V33.04C91.5217 33.2817 91.5725 33.5213 91.6736 33.7418C91.7747 33.9623 91.9236 34.1586 92.1099 34.317C92.2962 34.4753 92.5155 34.5919 92.7525 34.6587C92.9894 34.7254 93.2384 34.7407 93.482 34.7034C94.3361 34.5734 95.1992 34.5077 96.0635 34.5072C100.442 34.4974 104.646 36.1928 107.751 39.2207C110.857 42.2487 112.61 46.3617 112.625 50.6562C112.625 55.9294 109.646 61.3524 105.335 64.0339C103.299 65.3347 103.262 65.5809 98.065 68.1094C97.4815 68.3922 96.837 68.7748 97.0236 69.1707C97.1491 69.4435 97.7325 69.5633 98.5433 69.5633C100.438 69.5104 102.31 69.1483 104.083 68.492C108.275 66.7068 111.711 63.5568 113.808 59.5744C115.906 55.5921 116.538 51.0215 115.597 46.6352C114.656 42.2488 112.199 38.3156 108.643 35.5003C105.086 32.685 100.648 31.1602 96.0771 31.1835H96.0601Z" fill="#231F20"/>
<path d="M22.0346 60.449C22.0346 58.772 23.0226 56.77 25.0376 56.77C26.3766 56.77 27.1566 57.706 27.1566 59.175C27.1566 60.852 26.1686 62.854 24.1536 62.854C22.8146 62.854 22.0346 61.918 22.0346 60.449ZM29.5096 58.889C29.5096 56.302 27.6766 54.937 25.2456 54.937C21.7226 54.937 19.6816 57.667 19.6816 60.735C19.6816 63.322 21.5146 64.687 23.9456 64.687C27.4686 64.687 29.5096 61.957 29.5096 58.889Z" fill="#151515"/>
<path d="M33.9277 64.518C36.6967 64.518 38.1917 63.478 38.1917 61.177C38.1917 59.37 36.9827 58.603 34.6947 58.603H33.1607L33.4987 56.965H38.1917L38.5817 55.093H31.6657L29.6897 64.518H33.9277ZM32.7967 60.254H34.4867C35.4357 60.254 35.8517 60.553 35.8517 61.216C35.8517 62.048 35.3057 62.646 34.2137 62.646H32.3027L32.7967 60.254Z" fill="#151515"/>
<path d="M39.0519 64.518C40.9889 64.518 42.2629 62.412 43.0559 59.708L43.8489 57.056H46.0459L44.4859 64.518H46.6959L48.6719 55.093H42.1979L41.1319 58.85C40.3389 61.684 39.7149 62.555 38.9609 62.555H38.7009L38.2979 64.518H39.0519Z" fill="#151515"/>
<path d="M47.6465 64.518H50.0515L50.9745 62.841H54.5885L54.8225 64.518H57.1365L55.5245 55.093H53.1455L47.6465 64.518ZM53.8865 57.576L54.3545 61.034H51.9755L53.8865 57.576Z" fill="#151515"/>
<path d="M64.355 64.518L66.331 55.093H64.108L63.224 59.37C62.743 59.487 62.041 59.539 61.586 59.539C60.507 59.539 60.091 59.253 60.091 58.473C60.091 58.252 60.117 57.992 60.182 57.719L60.728 55.093H58.583L58.037 57.706C57.946 58.161 57.881 58.564 57.881 58.941C57.881 60.566 58.804 61.45 60.637 61.45C61.43 61.45 62.275 61.307 62.834 61.164L62.132 64.518H64.355Z" fill="#151515"/>
<path d="M74.2106 55.093L73.4436 58.694H69.5826L70.3496 55.093H68.1266L66.1246 64.518H68.3476L69.1666 60.657H73.0276L72.2086 64.518H74.4316L76.4336 55.093H74.2106Z" fill="#151515"/>
<path d="M79.7667 64.518C82.6137 64.518 84.3167 63.335 84.3167 61.034C84.3167 58.863 82.7047 58.226 80.5727 58.226H79.7797L80.4297 55.093H78.2067L76.2307 64.518H79.7667ZM79.3897 60.098H80.3777C81.2877 60.098 81.9897 60.293 81.9897 61.06C81.9897 62.113 81.3527 62.646 79.9617 62.646H78.8437L79.3897 60.098ZM86.9557 64.518L88.9317 55.093H86.7087L84.7327 64.518H86.9557Z" fill="#151515"/>
<path d="M90.9323 64.518L96.2753 58.538L95.0143 64.518H97.2243L99.2133 55.093H97.0033L91.5953 61.333L92.9343 55.093H90.7243L88.7223 64.518H90.9323ZM95.1313 54.807C96.6913 54.807 97.6793 54.144 97.9003 53H96.3663C96.2753 53.481 95.8073 53.728 95.1703 53.728C94.5463 53.728 94.1043 53.468 94.1043 53H92.5573V53.117C92.5573 54.066 93.5713 54.807 95.1313 54.807Z" fill="#151515"/>
<path d="M21.1016 78.518L21.8016 75.258H22.7116L24.4216 78.518H25.6316L23.6816 74.788L27.0216 71.268H25.6416L22.8016 74.288H21.9916L22.6216 71.268H21.4916L19.9716 78.518H21.1016Z" fill="#151515"/>
<path d="M27.4949 75.598C27.4949 74.088 28.3549 72.088 30.2249 72.088C31.5449 72.088 32.1049 73.068 32.1049 74.188C32.1049 75.698 31.2449 77.698 29.3749 77.698C28.0649 77.698 27.4949 76.718 27.4949 75.598ZM33.2749 74.128C33.2749 72.258 32.1749 71.138 30.3749 71.138C27.7349 71.138 26.3349 73.458 26.3349 75.658C26.3349 77.528 27.4349 78.648 29.2349 78.648C31.8749 78.648 33.2749 76.328 33.2749 74.128Z" fill="#151515"/>
<path d="M39.9533 71.268L39.3033 74.308H35.6633L36.3133 71.268H35.1733L33.6333 78.518H34.7733L35.4633 75.268H39.1033L38.4133 78.518H39.5533L41.0933 71.268H39.9533Z" fill="#151515"/>
<path d="M41.2231 80.018L41.5431 78.518H46.6531L46.3331 80.018H47.3731L47.8931 77.558H46.9631L48.2831 71.268H43.7031L43.0031 73.758C42.2831 76.228 41.6731 77.488 40.9931 77.558H40.7031L40.1831 80.018H41.2231ZM42.3331 77.558C43.0431 77.068 43.5131 75.868 44.0431 74.018L44.5531 72.228H46.9431L45.8231 77.558H42.3331Z" fill="#151515"/>
<path d="M49.6461 78.518L54.4961 73.028L53.3261 78.518H54.4461L55.9661 71.268H54.8661L50.0061 76.768L51.1761 71.268H50.0561L48.5361 78.518H49.6461Z" fill="#151515"/>
<path d="M62.2656 80.018L62.7856 77.558H61.8556L63.1756 71.268H62.0356L60.7156 77.558H57.3956L58.7156 71.268H57.5756L56.0556 78.518H61.5356L61.2156 80.018H62.2656Z" fill="#151515"/>
<path d="M64.5875 78.518L69.4375 73.028L68.2675 78.518H69.3875L70.9075 71.268H69.8075L64.9475 76.768L66.1175 71.268H64.9975L63.4775 78.518H64.5875Z" fill="#151515"/>
<path d="M72.407 75.598C72.407 74.088 73.267 72.088 75.137 72.088C76.457 72.088 77.017 73.068 77.017 74.188C77.017 75.698 76.157 77.698 74.287 77.698C72.977 77.698 72.407 76.718 72.407 75.598ZM78.187 74.128C78.187 72.258 77.087 71.138 75.287 71.138C72.647 71.138 71.247 73.458 71.247 75.658C71.247 77.528 72.347 78.648 74.147 78.648C76.787 78.648 78.187 76.328 78.187 74.128Z" fill="#151515"/>
<path d="M84.8654 71.268L84.2154 74.308H80.5754L81.2254 71.268H80.0854L78.5454 78.518H79.6854L80.3754 75.268H84.0154L83.3254 78.518H84.4654L86.0054 71.268H84.8654Z" fill="#151515"/>
<path d="M86.0552 78.518H91.0452L91.2552 77.548H87.4052L87.8852 75.268H91.5152L91.7152 74.308H88.0952L88.5352 72.238H92.3752L92.5852 71.268H87.5952L86.0552 78.518Z" fill="#151515"/>
<path d="M93.7866 71.268L92.2466 78.518H93.3866L93.9866 75.708H95.0466C97.0466 75.708 98.6266 75.208 98.6266 73.098C98.6266 71.678 97.4566 71.268 95.9866 71.268H93.7866ZM94.7266 72.208H95.8266C96.6966 72.208 97.4266 72.348 97.4266 73.198C97.4266 74.528 96.3866 74.748 95.3066 74.748H94.1866L94.7266 72.208Z" fill="#151515"/>
</g>
<defs>
<clipPath id="clip0">
<rect width="116" height="80" fill="white"/>
</clipPath>
</defs>
</svg>

<svg width="116" height="80" viewBox="0 0 116 80" fill="none" xmlns="http://www.w3.org/2000/svg"><g clip-path="url(#clip0)"><path d="M96.06 31.183c-.4 0-.807 0-1.21.037-.856-9.9-9.452-17.633-19.65-17.633-2.709.004-5.389.55-7.876 1.604a24.14 24.14 0 00-9.029-11.042A24.86 24.86 0 0044.497 0c-13.525 0-24.53 10.746-24.53 23.954 0 .366 0 .739.03 1.115-5.527.75-10.594 3.433-14.267 7.554C2.056 36.743.022 42.025 0 47.499a22.195 22.195 0 003.942 12.69 22.866 22.866 0 0010.547 8.306c2.293.919 6.364 1.44 6.71.666.139-.31-.207-.632-1.116-1.042a46.595 46.595 0 01-6.785-3.706c-4.329-2.994-6.612-6.078-7.762-8.13a18.69 18.69 0 01-2.144-8.784c.015-4.924 1.939-9.658 5.382-13.241 3.443-3.584 8.147-5.749 13.157-6.055a1.723 1.723 0 001.195-.595 1.654 1.654 0 00.383-1.259 20.54 20.54 0 01-.15-2.395c0-11.372 9.499-20.627 21.138-20.627a21.535 21.535 0 0112.57 4.084 20.86 20.86 0 017.665 10.588c.074.238.202.457.373.64a1.727 1.727 0 002.083.324 16.593 16.593 0 018.122-2.049 16.59 16.59 0 018.089 2.172 16.187 16.187 0 015.925 5.821 15.79 15.79 0 012.2 7.937v.196a1.668 1.668 0 00.585 1.277 1.708 1.708 0 001.373.386c.854-.13 1.717-.195 2.582-.196 4.378-.01 8.582 1.686 11.687 4.714 3.106 3.028 4.859 7.14 4.874 11.435 0 5.273-2.979 10.696-7.29 13.378-2.036 1.3-2.073 1.547-7.27 4.075-.584.283-1.228.666-1.041 1.062.125.272.709.392 1.52.392a17.356 17.356 0 005.539-1.071c4.192-1.785 7.628-4.935 9.725-8.918a19.127 19.127 0 001.789-12.939c-.941-4.386-3.398-8.32-6.954-11.135a20.089 20.089 0 00-12.566-4.317h-.017z" fill="#231F20"/><path d="M22.035 60.449c0-1.677.988-3.679 3.003-3.679 1.339 0 2.119.936 2.119 2.405 0 1.677-.988 3.679-3.003 3.679-1.34 0-2.12-.936-2.12-2.405zm7.475-1.56c0-2.587-1.833-3.952-4.264-3.952-3.523 0-5.564 2.73-5.564 5.798 0 2.587 1.833 3.952 4.264 3.952 3.523 0 5.564-2.73 5.564-5.798zm4.418 5.629c2.769 0 4.264-1.04 4.264-3.341 0-1.807-1.21-2.574-3.497-2.574H33.16l.338-1.638h4.693l.39-1.872h-6.916l-1.976 9.425h4.238zm-1.131-4.264h1.69c.949 0 1.365.299 1.365.962 0 .832-.546 1.43-1.638 1.43h-1.911l.494-2.392zm6.255 4.264c1.937 0 3.21-2.106 4.004-4.81l.793-2.652h2.197l-1.56 7.462h2.21l1.976-9.425h-6.474l-1.066 3.757c-.793 2.834-1.417 3.705-2.171 3.705h-.26l-.403 1.963h.754zm8.595 0h2.404l.923-1.677h3.615l.233 1.677h2.314l-1.611-9.425h-2.38l-5.498 9.425zm6.24-6.942l.468 3.458h-2.38l1.911-3.458zm10.468 6.942l1.976-9.425h-2.223l-.884 4.277c-.481.117-1.183.169-1.638.169-1.079 0-1.495-.286-1.495-1.066 0-.221.026-.481.091-.754l.546-2.626h-2.145l-.546 2.613c-.091.455-.156.858-.156 1.235 0 1.625.923 2.509 2.756 2.509.793 0 1.638-.143 2.197-.286l-.702 3.354h2.223zm9.855-9.425l-.766 3.601h-3.861l.767-3.601h-2.223l-2.002 9.425h2.223l.819-3.861h3.86l-.818 3.861h2.223l2.002-9.425H74.21zm5.557 9.425c2.847 0 4.55-1.183 4.55-3.484 0-2.171-1.612-2.808-3.744-2.808h-.793l.65-3.133h-2.223l-1.976 9.425h3.536zm-.377-4.42h.988c.91 0 1.612.195 1.612.962 0 1.053-.637 1.586-2.028 1.586h-1.118l.546-2.548zm7.566 4.42l1.976-9.425h-2.223l-1.976 9.425h2.223zm3.976 0l5.343-5.98-1.26 5.98h2.21l1.988-9.425h-2.21l-5.408 6.24 1.34-6.24h-2.21l-2.003 9.425h2.21zm4.2-9.711c1.56 0 2.547-.663 2.768-1.807h-1.534c-.09.481-.559.728-1.196.728-.624 0-1.066-.26-1.066-.728h-1.547v.117c0 .949 1.014 1.69 2.574 1.69zm-74.03 23.711l.7-3.26h.91l1.71 3.26h1.21l-1.95-3.73 3.34-3.52h-1.38l-2.84 3.02h-.81l.63-3.02h-1.13l-1.52 7.25h1.13z" fill="#151515"/><path d="M27.495 75.598c0-1.51.86-3.51 2.73-3.51 1.32 0 1.88.98 1.88 2.1 0 1.51-.86 3.51-2.73 3.51-1.31 0-1.88-.98-1.88-2.1zm5.78-1.47c0-1.87-1.1-2.99-2.9-2.99-2.64 0-4.04 2.32-4.04 4.52 0 1.87 1.1 2.99 2.9 2.99 2.64 0 4.04-2.32 4.04-4.52zm6.678-2.86l-.65 3.04h-3.64l.65-3.04h-1.14l-1.54 7.25h1.14l.69-3.25h3.64l-.69 3.25h1.14l1.54-7.25h-1.14zm1.27 8.75l.32-1.5h5.11l-.32 1.5h1.04l.52-2.46h-.93l1.32-6.29h-4.58l-.7 2.49c-.72 2.47-1.33 3.73-2.01 3.8h-.29l-.52 2.46h1.04zm1.11-2.46c.71-.49 1.18-1.69 1.71-3.54l.51-1.79h2.39l-1.12 5.33h-3.49zm7.313.96l4.85-5.49-1.17 5.49h1.12l1.52-7.25h-1.1l-4.86 5.5 1.17-5.5h-1.12l-1.52 7.25h1.11zm12.62 1.5l.52-2.46h-.93l1.32-6.29h-1.14l-1.32 6.29h-3.32l1.32-6.29h-1.14l-1.52 7.25h5.48l-.32 1.5h1.05zm2.322-1.5l4.85-5.49-1.17 5.49h1.12l1.52-7.25h-1.1l-4.86 5.5 1.17-5.5h-1.12l-1.52 7.25h1.11zm7.819-2.92c0-1.51.86-3.51 2.73-3.51 1.32 0 1.88.98 1.88 2.1 0 1.51-.86 3.51-2.73 3.51-1.31 0-1.88-.98-1.88-2.1zm5.78-1.47c0-1.87-1.1-2.99-2.9-2.99-2.64 0-4.04 2.32-4.04 4.52 0 1.87 1.1 2.99 2.9 2.99 2.64 0 4.04-2.32 4.04-4.52zm6.678-2.86l-.65 3.04h-3.64l.65-3.04h-1.14l-1.54 7.25h1.14l.69-3.25h3.64l-.69 3.25h1.14l1.54-7.25h-1.14zm1.19 7.25h4.99l.21-.97h-3.85l.48-2.28h3.63l.2-.96h-3.62l.44-2.07h3.84l.21-.97h-4.99l-1.54 7.25zm7.732-7.25l-1.54 7.25h1.14l.6-2.81h1.06c2 0 3.58-.5 3.58-2.61 0-1.42-1.17-1.83-2.64-1.83h-2.2zm.94.94h1.1c.87 0 1.6.14 1.6.99 0 1.33-1.04 1.55-2.12 1.55h-1.12l.54-2.54z" fill="#151515"/></g><defs><clipPath id="clip0"><path fill="#fff" d="M0 0h116v80H0z"/></clipPath></defs></svg>
